app/dist/common/images/protalix-biotherapeutics.svg

<svg height="18" width="18" xmlns="http://www.w3.org/2000/svg"><path d="m0 0h18v18h-18z" fill="#f0f3fa"/><path d="m4.25 13h-1.25l3.72-4-3.72-4h1.25l3.75 4zm3.25 0h-1.34l3.51-4-3.51-4h1.34l3.08 3.5 3.04-3.5h1.38l-3.51 4 3.51 4h-1.38l-3.04-3.46z" fill="#5ba284"/></svg>

<!-- by TradingView --><svg xmlns="http://www.w3.org/2000/svg" width="18" height="18"><path fill="#F0F3FA" d="M0 0h18v18H0z"/><path d="M4.25 13H3l3.72-4L3 5h1.25L8 9l-3.75 4zm3.25 0H6.16l3.51-4-3.51-4H7.5l3.08 3.5L13.62 5H15l-3.51 4L15 13h-1.38l-3.04-3.46L7.5 13z" fill="#5BA284"/></svg>
